X:629
T:The dancingmaster
T:The swallowtail
T:The swallows nest
R:Jig
O:Ireland
B:O'Neill's 960
S:My arrangement from various sources
Z:Transcription, arrangement, chords:Mike Long
M:6/8
L:1/8
K:G
A/B/|\
"Am"cAA eAA|cAA edc|"G"BGG dGG|gfg dcB|\
"Am"cAA eAA|cAA e2f|"G"gfg dcB|"Am"cAA A2:|
|:e|\
"Am"efg a2b|a2b age|efg a2b|"Em"age "G"g2g|\
"Am"efg a2b|a2b age|"G"gfg dcB|"Am"cAA A2:|
